libs/ui/packages/crypto-icons/src/svg/EVMOS.svg

<svg width="24" height="24" stroke-miterlimit="10" version="1.1" viewBox="0 0 24 24" xml:space="preserve" xmlns="http://www.w3.org/2000/svg" xmlns:xlink="http://www.w3.org/1999/xlink">
<path d="M9.55221 5.59162C5.74147 7.06046 5.39239 10.8222 4.29969 12.579C3.19406 14.3566 0.661093 15.3374 1.00747 16.2434C1.35384 17.1492 3.88982 16.1763 5.89615 16.7543C7.8787 17.3255 10.6449 19.8867 14.4556 18.4177C16.3969 17.6696 17.8026 16.1295 18.449 14.3053C18.5185 14.1095 18.3886 13.9001 18.1823 13.8807C18.0542 13.8686 17.9312 13.936 17.8734 14.0514C17.2887 15.2208 16.2856 16.1838 14.973 16.6897C12.8059 17.5249 10.4348 16.8692 8.97863 15.2244C8.64789 14.851 8.36502 14.4258 8.14173 13.956C8.08034 13.8266 8.02195 13.6952 7.97019 13.5592C7.91812 13.4232 7.87389 13.2864 7.83326 13.1489C8.97863 12.6128 10.3003 12.045 11.7987 11.4676C13.2678 10.9013 14.605 10.442 15.7953 10.0746C16.6007 9.82622 17.3389 9.61953 18.0054 9.45062C18.0537 9.43854 18.1011 9.42645 18.1484 9.41466C18.2492 9.38958 18.3527 9.44367 18.39 9.54097L18.3907 9.54278C18.4126 9.6005 18.4316 9.65851 18.4521 9.71653C18.5838 10.0909 18.6826 10.4692 18.7478 10.8485C18.7764 11.0143 18.957 11.1047 19.1051 11.0249C19.6522 10.73 20.1527 10.4423 20.5998 10.1656C22.2662 9.13515 23.19 8.26129 23.0003 7.76602C22.8111 7.27046 21.5423 7.24207 19.6172 7.5956C19.0054 7.70801 18.3272 7.85909 17.5962 8.04614C17.4698 8.07846 17.3418 8.11201 17.2125 8.14645C16.5973 8.31023 15.9486 8.49788 15.273 8.70789C14.0166 9.09859 12.6687 9.56666 11.2771 10.103C9.97532 10.6049 8.74149 11.1252 7.60997 11.6438C7.59613 9.44307 8.92114 7.36262 11.0882 6.52743C12.4005 6.0216 13.7879 6.063 15.0018 6.53951C15.1216 6.58665 15.2579 6.55403 15.3456 6.45884C15.4857 6.30624 15.4427 6.0633 15.2606 5.96419C13.5646 5.04348 11.4935 4.84344 9.55221 5.59162Z" fill="#000000" fill-rule="nonzero" opacity="1" stroke="none"/>
</svg>

<svg xmlns="http://www.w3.org/2000/svg" xml:space="preserve" width="24" height="24" viewBox="0 0 24 24" stroke-miterlimit="10"><path d="M9.552 5.592c-3.81 1.468-4.16 5.23-5.252 6.987-1.106 1.778-3.639 2.758-3.293 3.664.347.906 2.883-.067 4.89.511 1.982.572 4.748 3.133 8.559 1.664a6.84 6.84 0 0 0 3.993-4.113.317.317 0 0 0-.267-.424.31.31 0 0 0-.309.17 5.408 5.408 0 0 1-9.731-.095q-.093-.193-.172-.397a6 6 0 0 1-.137-.41 62 62 0 0 1 3.966-1.681 62 62 0 0 1 3.996-1.393 45 45 0 0 1 2.21-.624l.143-.036a.206.206 0 0 1 .242.126v.002q.033.087.062.174.197.562.296 1.131a.245.245 0 0 0 .357.177 29 29 0 0 0 1.495-.86c1.666-1.03 2.59-1.904 2.4-2.399s-1.458-.524-3.383-.17a30 30 0 0 0-2.405.55q-.924.247-1.939.562a64 64 0 0 0-3.996 1.395 65 65 0 0 0-3.667 1.54 5.44 5.44 0 0 1 3.478-5.116 5.38 5.38 0 0 1 3.914.013c.12.047.256.014.344-.081a.318.318 0 0 0-.085-.495 6.8 6.8 0 0 0-5.709-.372"/></svg>
